X: 1
T: Galope Et Chaine De Cotillon
M: 4/4
L: 1/8
R: reel
K: Cmaj
|:Ac/e/ A/A/c/e/|A/A/c/e/ az|ee/f/ e/d/c/B/|ee/f/ e/d/c/B/|
Ac/e/ A/A/c/e/|A/A/c/e/ az|ee/f/ e/d/c/B/|A/a/e/c/ A2:|
|:{ef}g^f/g/ a/g/f/g/|e/g/e/d/ cc/c/|B/c/d/e/ f/d/B/d/|c/d/e/f/ g z|
{ef}g^f/g/ a/g/f/g/|e/g/e/d/ cc/c/|B/c/d/e/ f/d/B/d/|1 c/e/d/B/ c/d/e/f/:|2 c/e/d/B/ c2||
